core/img/filetypes/font.svg

<?xml version="1.0" encoding="UTF-8" standalone="no"?><svg viewBox="0 0 16 16" version="1.1" width="16" height="16" xmlns="http://www.w3.org/2000/svg" xmlns:svg="http://www.w3.org/2000/svg"><path d="m 12.166667,4.6666667 h 2.499999 V 14.666666 H 15.5 V 15.5 H 12.166667 V 14.666666 H 13 V 12.166667 H 9.666667 L 8.4166668,14.666666 H 9.666667 V 15.5 H 6.3333333 V 14.666666 H 7.1666666 L 12.166667,4.6666667 M 13,5.5 10.083333,11.333333 H 13 V 5.5 M 2.1666667,0.5 H 6.3333333 C 7.2583334,0.5 8,1.2416666 8,2.1666667 V 11.333333 H 5.5 V 7.1666666 H 3 V 11.333333 H 0.5 V 2.1666667 C 0.5,1.2416666 1.2416666,0.5 2.1666667,0.5 M 3,2.1666667 V 5.5 H 5.5 V 2.1666667 Z" fill="#969696" /></svg>

<svg xmlns="http://www.w3.org/2000/svg" width="16" height="16"><path fill="#969696" d="M12.167 4.667h2.5v10h.833v.833h-3.333v-.833H13v-2.5H9.667l-1.25 2.5h1.25v.833H6.333v-.833h.834l5-10M13 5.5l-2.917 5.833H13V5.5M2.167.5h4.166A1.66 1.66 0 0 1 8 2.167v9.166H5.5V7.167H3v4.166H.5V2.167A1.66 1.66 0 0 1 2.167.5M3 2.167V5.5h2.5V2.167Z"/></svg>
